X:2775
L:1/8
Q:3/8=120
M:6/8
K:G
 G>AG B>AG | d2 d d2 c | Bdg d2 c | B2 A G2 D | G>AG B>AG | d2 d d2 g | f>gf ed^c | d3 d2 z || 
 a2 d c'2 b | agf gfg | a2 d c'2 b | agf gfg | ec'c' dbb | caa g2 B | cBA d2 F | G3 G2 z || 
 B3 B>cB | G2 G GBd | d3 c>dc | B2 B B2 g | g2 f f2 e | e2 d d2 c | B>cd dcB | B3 A2 z || 
"^d cr in MS" g2 a ed^c | d>ed d3 | c'3 caf | g>ag g3 | ec'c' dbb | caa g2 B | cBA d2 F | G3 G2 |]

